!!!OTL: AUF DEINEN HOEHN
!!!ARE: Europa, Mitteleuropa, Deutschland; Schottland
!!!SCT: B0732
!!!YEM: Copyright 1995, estate of Helmut Schaffrath.
**kern
*ICvox
*Ivox
*M2/4
*k[b-e-a-]
*E-:
{8b-
=1
4ee-
8dd
8cc
=2
4b-}
{8cc
8ee-
=3
8g
8g
8a-
8f
=4
4.e-}
{8b-
=5
4ee-
8dd
8cc
=6
4b-}
{8cc
8ee-
=7
8g
8g
8a-
8f
=8
4.e-}
{8g
=9
8f
8b-
8dd
8ff
=10
4.ff}
{8ee-
=11
8dd
8b-
8cc
8an
=12
4.b-}
{16cc
16dd
=13
4ee-
8dd
8cc
=14
4b-}
{8cc
8ee-
=15
8g
8g
16b-
16a-
8f
=16
4e-
8r}
==
!!!AGN: Heimat - Lied
!!!ONB: ESAC (Essen Associative Code) Database: BOEHME
!!!AMT: simple duple
!!!AIN: vox
!!!EED: Helmut Schaffrath
!!!EEV: 1.0
*-
